X:6570
T:Vals
T:Pneumonia Waltz
A:Orust
M:3/4
N:"Played in a rather chilly dining room Feb 2003 at Kinnersley Castle"
O:Sweden
R:Waltz
Z:Richard Robinson 
%%TUNEURL: http://www.leeds.ac.uk/music/Info/RRTuneBk/gettune/00000ce7.html
%%ID:00000ce7
K:D
D FG |\
A3B AG       | (GF) (FD) FA |\
d2 dc de     | f4 A2        |
(fg) (gf) ed | (dc) cB A2   |\
(Af) (fe) ce | ed dA F2     |
(FG) (AB) AG | (GF) (FD) FA |\
d2 dc de     | f4 A2        |
(fg) (gf) ed | dc cA ce     |\
ba ^ga ce    | d3          :|
[K:A] dcd |:\
e2 ec A2 | a2 ae c2   |\
cB d<B G<B | EA cB A2 |
e2 ec A2 | a2 ae c2   |\
cB d<B G<B |1 A3A cd :|2 [K:D] A4 |:
G2 |\
F>A df a2  | ec ef g2    |\
gf ed cd | e(d c)(B A)(G |
F)>A df fa | ec ef ga    |\
b<f b<f ge | d4         :|
